!!!OTL: 436a. Verlorener Rosenkranz (Rautenkranz).
!!!ARE: Europa, Mitteleuropa, Deutschland
!!!SCT: E0436
!!!TXL: @@DE
!!!YEM: Copyright 1995, estate of Helmut Schaffrath.
**kern	**text
*ICvox	*
*M4/4	*
*met(c)	*
*k[b-]	*
*F:	*
!LO:TX:a:t=Alt.	!
!LO:TX:a:t=Aus 4 Fragmenten bei Franck, Farrago 1602 und Fasc. quodlib. 1611, Nr. 7.	!
{4f	Gut
=1	=1
4a	Hen-
4a	-ſel
4b-	übr
4b-	die
=2	=2
4cc	Hei-
4cc	-de
4cc}	reit,
{4cc	er
=3	=3
4b-	ſchoß
4a	nach
4b-	ei-
4cc	-ner
=4	=4
(4b-/	Tau-
4g)	.
4a;}	-ben,
{4cc	da
=5	=5
!LO:TX:a:t=Tenor.	!
4a	ſtrauchelt
4a	.
4g	ihm
4g	ſein
=6	=6
4f	apfelgrau
4f	.
4d}	Roß
!LO:TX:a:t=Baß.	!
{4a	wol
=7	=7
4a	übr
4f	ein
4a	Fen-
4b-	-chel-
=8	=8
2cc	-ſtau-
4b-	-den,
4a	ja
=9	=9
2g	Stau-
4f}	-den.
==	==
!!!AGN: Liebes - Lied, Untreue
!!!ONB: ESAC (Essen Associative Code) Database: ERK1
!!!AMT: simple quadruple
!!!AIN: vox
!!!EED: Helmut Schaffrath
!!!EEV: 1.0
!!!GTL: Liebeslieder [Alte (aus dem 13. bis 17. Jahrh.) mit ihrem jungen Nachwuchs]
!!!URL-scan: https://rosdok.uni-rostock.de/mcrviewer/recordIdentifier/rosdok_ppn745177662/iview2/phys_0260.iview2?x=-778.7160746633431&y=1718.60835842113&scale=0.3980252647138593&rotation=0&layout=singlePageLayout
!!!ENC: Anna Maria Matuszewska
!!!EEV: 2024/10/12
*-	*-
